X: 7
T: The Trip To Pakistan
R: reel
M: 4/4
L: 1/8
K: Emin
|:EGBE G3 B|A3 G FGAF|EGBE G3 B|AGFG E4:|
|:EGBE c3 A|B3 c BABG|EGBE c3 A|BAGB A4:|
|:FGBF GBFG|EFGE FGEF|DFAD FADF|AGFG E4:|


Tune 112	Setting 12697

